X:287
T: Yangchenghuupan yipianhong
N: C1784
O: China, Jiangsu Changshu
S: III, 433]
N: Freely
R: Shange, Baimao shange]
M: 4/4
L: 1/16
K: Bb
g2g2g2f2g4b4 | c2fdc12 |
d2cdc2bgg3bc2dc | f12z4 |
d2dcd2f2g4b2cb | d12z4 |
f2fdc2f2c8- | c2d2g2g2c4cbg2 | f12z4

